X: 271
T:Cader Idris
T:Arthur's Chair
M:3/4
L:1/4
A:Welsh
N:"Arthur" in the translated title refers to King Arthur
Z:Kevin Gow
K:D
A|dAF|D&gt;EF|GBe|cAc|dAF|G&gt;AB|Adc|d2:|!
d/2e/2|fdf|ecA|BB/2c/2 d/2e/2|
     cAA|fdf|ecA|dcB|A2B/2c/2|!
dAF|D&gt;EF|GBe|cAc|dAF|G&gt;AB|Adc|d2||

